projects/vfh1/img/icons/logo.svg

<svg width="130" height="22" viewBox="0 0 130 22" fill="none" xmlns="http://www.w3.org/2000/svg">
<path fill-rule="evenodd" clip-rule="evenodd" d="M66.837 1.51246L64.0109 3.01016L67.0489 3.09197C68.7197 3.13691 71.4542 3.13691 73.125 3.09197L76.163 3.01016L73.2714 1.49777C71.6812 0.665811 70.2187 -0.0079944 70.0214 7.16709e-05C69.8244 0.00813774 68.3913 0.688857 66.837 1.51246ZM64.1522 7.18723V10.6441H66.837H69.5217V9.20375V7.76338H68.1087C67.041 7.76338 66.6956 7.65766 66.6956 7.33127C66.6956 6.96945 67.2922 6.89916 70.3696 6.89916C73.4469 6.89916 74.0435 6.96945 74.0435 7.33127C74.0435 7.66313 73.6823 7.76338 72.4891 7.76338H70.9348V9.2147V10.6657L73.5489 10.583L76.163 10.5001L76.2427 7.11521L76.3221 3.73034H70.2373H64.1522V7.18723ZM45.8001 5.69702C44.7562 6.2677 43.8043 7.7798 43.8043 8.86757C43.8043 10.7628 45.4002 12.264 47.992 12.8067C49.0467 13.0276 49.4088 13.6096 48.8882 14.2488C48.3713 14.884 46.9308 14.763 45.5707 13.9702L44.3696 13.2702V14.8304C44.3696 16.2967 44.425 16.4209 45.288 16.8878C46.6451 17.6221 49.4658 17.585 50.4945 16.819C51.634 15.9709 52.3832 14.3053 52.1631 13.1095C51.8821 11.5835 51.0225 10.7205 49.2324 10.1676C47.1869 9.53561 46.7992 9.25848 47.2267 8.73333C47.6854 8.17014 49.4421 8.24734 50.6686 8.88456L51.7174 9.4296V7.76367V6.09745L50.5813 5.63422C49.0685 5.01717 46.9939 5.04454 45.8001 5.69702ZM54.9024 5.58208C53.1228 6.40108 52.347 8.82119 53.2765 10.6536C53.7649 11.6164 54.7178 12.1914 56.6444 12.686C58.1496 13.0723 58.5783 13.6911 57.7686 14.3087C57.0547 14.8535 55.2624 14.6132 54.2289 13.8345C53.7929 13.5058 53.3673 13.2368 53.283 13.2368C53.1991 13.2368 53.1304 13.8648 53.1304 14.6325C53.1304 16.2826 53.5487 16.7732 55.3794 17.2704C58.5633 18.1349 61.0435 16.4926 61.0435 13.5203C61.0435 11.4902 60.3327 10.7942 57.3334 9.8862C56.5116 9.63759 55.9565 9.30198 55.9565 9.05395C55.9565 8.1445 58.7038 8.18426 60.0956 9.11387L60.7609 9.55808V7.94717C60.7609 6.52264 60.6741 6.27836 60.0125 5.83645C59.0169 5.17158 56.1091 5.02696 54.9024 5.58208ZM92.9783 5.79785C91.191 6.73812 90.4348 8.32858 90.4348 11.1465C90.4348 14.5518 91.62 16.5998 93.9807 17.2736C96.5128 17.9963 99.1304 16.9601 100.185 14.8174C100.625 13.9236 100.75 13.0939 100.75 11.0762C100.75 6.97204 99.5811 5.48299 96.1833 5.25714C94.5575 5.14911 94.0477 5.23524 92.9783 5.79785ZM114.856 5.56451C114.377 5.78604 113.697 6.33885 113.345 6.79315C112.81 7.48366 112.726 7.87573 112.831 9.18042C112.982 11.0517 113.647 11.7711 115.923 12.5215C117.902 13.1743 118.325 13.5733 117.707 14.2039C117.049 14.8745 115.881 14.7912 114.357 13.965L113.043 13.2529V14.7673C113.043 16.1345 113.123 16.3296 113.868 16.7778C116.924 18.618 120.952 16.8999 120.955 13.7545C120.958 11.6596 120.089 10.7467 117.285 9.89801C115.879 9.47252 115.447 8.8546 116.317 8.51439C117.119 8.20068 118.249 8.34155 119.473 8.9079L120.674 9.46359V7.89993C120.674 6.52668 120.583 6.27548 119.926 5.83645C118.948 5.18339 116.022 5.02639 114.856 5.56451ZM0 11.3643V17.2698H1.41304H2.82609V15.1093V12.9487H5.36957H7.91304V11.5083V10.068H5.36957H2.82609V9.20375V8.33953H5.36957H7.91304V6.89916V5.45879H3.95652H0V11.3643ZM9.04348 11.3643V17.2698H10.5978H12.1522V11.3643V5.45879H10.5978H9.04348V11.3643ZM13.2826 6.89916V8.33953H14.837H16.3913V12.8197V17.3001L17.875 17.2128L19.3587 17.1258L19.4367 12.7327L19.5147 8.33953H20.9204H22.3261V6.89916V5.45879H17.8043H13.2826V6.89916ZM23.4565 11.3528V17.2698H25.0109H26.5652L26.5779 13.4528L26.5904 9.63586L28.1752 13.4649L29.7598 17.294L31.6245 17.2099L33.4891 17.1258L33.5657 11.2923L33.642 5.45879H32.082H30.5217L30.5068 8.84366L30.4915 12.2285L29.2681 8.91568L28.0444 5.60282L25.7505 5.51928L23.4565 5.43545V11.3528ZM35.0435 11.3643V17.2698H39H42.9565V15.6854V14.101H40.5543C38.1804 14.101 38.1522 14.0927 38.1522 13.3808C38.1522 12.669 38.1804 12.6606 40.5543 12.6606H42.9565V11.2203V9.7799H40.5543C38.1804 9.7799 38.1522 9.77154 38.1522 9.05971C38.1522 8.34788 38.1804 8.33953 40.5543 8.33953H42.9565V6.89916V5.45879H39H35.0435V11.3643ZM79.6956 11.3643V17.2698H81.1087H82.5217V14.9652V12.6606H84.2174H85.913V14.9652V17.2698H87.4674H89.0217V11.3643V5.45879H87.4674H85.913V7.61934V9.7799H84.2174H82.5217V7.61934V5.45879H81.1087H79.6956V11.3643ZM102.305 9.99595C102.306 13.9849 102.373 14.6443 102.857 15.4538C103.72 16.8956 104.709 17.4038 106.665 17.4093C108.855 17.4153 110.049 16.8933 110.851 15.5794C111.429 14.6319 111.498 14.105 111.589 9.99595L111.69 5.45879H110.106H108.522V9.34779C108.522 12.8528 108.466 13.2938 107.957 13.8129C107.291 14.4911 106.581 14.5469 105.82 13.9806C105.331 13.6162 105.261 13.1319 105.174 9.51545L105.076 5.45879H103.69H102.304L102.305 9.99595ZM122.087 11.3643V17.2698H126.043H130V15.6854V14.101H127.437C124.94 14.101 124.876 14.084 124.964 13.4528C125.049 12.8447 125.207 12.7995 127.527 12.7214L130 12.6382V11.209V9.7799H127.457C124.932 9.7799 124.913 9.77443 124.913 9.05971C124.913 8.345 124.932 8.33953 127.457 8.33953H130V6.89916V5.45879H126.043H122.087V11.3643ZM96.9314 8.85489C97.6116 9.41635 97.9957 11.4683 97.669 12.7949C97.2194 14.6204 95.4646 15.2213 94.2373 13.9699C93.6526 13.3742 93.5435 12.9873 93.5435 11.5083C93.5435 10.0294 93.6526 9.64249 94.2373 9.04675C95.0566 8.21134 96.0646 8.1396 96.9314 8.85489ZM64.1522 14.6772V18.134H70.2283H76.3043V14.6772V11.2203H73.6196H70.9348V12.8047V14.3891H72.4891C73.6823 14.3891 74.0435 14.4893 74.0435 14.8212C74.0435 15.183 73.4469 15.2533 70.3696 15.2533C67.2922 15.2533 66.6956 15.183 66.6956 14.8212C66.6956 14.4948 67.041 14.3891 68.1087 14.3891H69.5217V12.8047V11.2203H66.837H64.1522V14.6772ZM71.712 16.0412C70.9735 16.1005 69.7656 16.1005 69.0272 16.0412C68.2887 15.9818 68.8929 15.9332 70.3696 15.9332C71.8462 15.9332 72.4504 15.9818 71.712 16.0412ZM64.2508 18.9263C64.3232 19.0449 65.6661 19.7853 67.2349 20.5712L70.087 22L72.939 20.5712C74.5078 19.7853 75.8508 19.0449 75.9231 18.9263C75.9957 18.8076 73.3695 18.7102 70.087 18.7102C66.8045 18.7102 64.1782 18.8076 64.2508 18.9263Z" fill="#42474D"/>
</svg>

<svg width="130" height="22" fill="none" xmlns="http://www.w3.org/2000/svg"><path fill-rule="evenodd" clip-rule="evenodd" d="M66.837 1.512L64.011 3.01l3.038.082c1.67.045 4.405.045 6.076 0l3.038-.082-2.892-1.512C71.681.666 70.22-.008 70.021 0c-.197.008-1.63.689-3.184 1.512zm-2.685 5.675v3.457h5.37v-2.88h-1.413c-1.068 0-1.413-.106-1.413-.433 0-.362.596-.432 3.674-.432 3.077 0 3.673.07 3.673.432 0 .332-.36.432-1.554.432h-1.554v2.902l2.614-.082 2.614-.083.08-3.385.08-3.385H64.151v3.457zM45.8 5.697c-1.044.57-1.996 2.083-1.996 3.17 0 1.896 1.596 3.397 4.188 3.94 1.055.22 1.417.803.896 1.442-.517.635-1.957.514-3.317-.279l-1.201-.7v1.56c0 1.467.055 1.59.918 2.058 1.357.734 4.178.697 5.207-.069 1.139-.848 1.888-2.514 1.668-3.71-.28-1.525-1.14-2.389-2.93-2.941-2.046-.632-2.434-.91-2.006-1.435.458-.563 2.215-.486 3.442.152l1.048.545V6.097l-1.136-.463c-1.513-.617-3.587-.59-4.78.063zm9.102-.115c-1.78.82-2.555 3.24-1.626 5.072.489.962 1.442 1.537 3.368 2.032 1.506.386 1.934 1.005 1.125 1.623-.714.545-2.507.304-3.54-.474-.436-.33-.862-.598-.946-.598-.084 0-.153.628-.153 1.396 0 1.65.419 2.14 2.25 2.637 3.183.865 5.663-.777 5.663-3.75 0-2.03-.71-2.726-3.71-3.634-.821-.248-1.377-.584-1.377-.832 0-.91 2.748-.87 4.14.06l.665.444v-1.61c0-1.425-.087-1.67-.748-2.112-.996-.664-3.904-.809-5.11-.254zm38.076.216c-1.787.94-2.543 2.53-2.543 5.348 0 3.406 1.185 5.454 3.546 6.128 2.532.722 5.15-.314 6.204-2.457.44-.893.565-1.723.565-3.74 0-4.105-1.169-5.594-4.567-5.82-1.626-.108-2.135-.022-3.205.54zm21.878-.233c-.479.221-1.159.774-1.511 1.228-.535.69-.619 1.083-.514 2.387.151 1.872.816 2.591 3.092 3.341 1.979.653 2.402 1.052 1.784 1.683-.658.67-1.826.587-3.35-.239l-1.314-.712v1.514c0 1.367.08 1.563.825 2.01 3.056 1.841 7.084.123 7.087-3.023.003-2.094-.866-3.007-3.67-3.856-1.406-.425-1.838-1.043-.968-1.384.802-.313 1.932-.172 3.156.394l1.201.556V7.9c0-1.373-.091-1.625-.748-2.064-.978-.653-3.904-.81-5.07-.271zM0 11.365v5.905h2.826v-4.321h5.087v-2.881H2.826V8.34h5.087V5.459H0v5.905zm9.043 0v5.905h3.109V5.459H9.043v5.905zm4.24-4.466v1.44h3.108V17.3l1.484-.087 1.484-.087.078-4.393.078-4.393h2.811V5.459h-9.043v1.44zm10.173 4.454v5.917h3.109l.013-3.817.012-3.817 1.585 3.829 1.585 3.829 1.864-.084 1.865-.084.077-5.834.076-5.833h-3.12l-.015 3.385-.016 3.385-1.223-3.313-1.224-3.313-2.294-.084-2.294-.084v5.918zm11.588.011v5.906h7.912V14.1h-2.402c-2.374 0-2.402-.008-2.402-.72s.028-.72 2.402-.72h2.402V9.78h-2.402c-2.374 0-2.402-.008-2.402-.72s.028-.72 2.402-.72h2.402V5.459h-7.912v5.905zm44.652 0v5.906h2.826v-4.61h3.391v4.609h3.109V5.459h-3.109v4.32h-3.391V5.46h-2.826v5.905zm22.609-1.368c.001 3.989.068 4.648.552 5.458.863 1.442 1.852 1.95 3.808 1.955 2.19.006 3.384-.516 4.186-1.83.578-.947.647-1.474.738-5.583l.101-4.537h-3.168v3.889c0 3.505-.056 3.946-.565 4.465-.666.678-1.376.734-2.137.168-.489-.365-.559-.85-.646-4.466l-.098-4.056h-2.772l.001 4.537zm19.782 1.368v5.906H130V14.1h-2.563c-2.497 0-2.561-.017-2.473-.648.085-.608.243-.653 2.563-.732l2.473-.083V9.78h-2.543c-2.525 0-2.544-.005-2.544-.72 0-.714.019-.72 2.544-.72H130V5.46h-7.913v5.905zm-25.156-2.51c.68.562 1.065 2.614.738 3.94-.45 1.826-2.204 2.427-3.432 1.176-.584-.596-.694-.983-.694-2.462s.11-1.866.694-2.461c.82-.836 1.828-.907 2.694-.192zm-32.779 5.823v3.457h12.152V11.22h-5.369v3.169h1.554c1.193 0 1.554.1 1.554.432 0 .362-.596.432-3.673.432-3.078 0-3.674-.07-3.674-.432 0-.326.345-.432 1.413-.432h1.413V11.22h-5.37v3.457zm7.56 1.364c-.739.06-1.946.06-2.685 0-.738-.06-.134-.108 1.343-.108 1.476 0 2.08.049 1.342.108zm-7.461 2.885c.072.119 1.415.86 2.984 1.645L70.087 22l2.852-1.429c1.569-.786 2.912-1.526 2.984-1.645.073-.118-2.553-.216-5.836-.216-3.282 0-5.909.098-5.836.216z" fill="#42474D"/></svg>
